X:325
T:Murray River Jig
M:6/8
L:1/8
Q:3/8=100
R:jig
Z:Transcribed to abc by Tony Ludiker
Z: posted by Tony Ludiker 10/00
K:A
v (A/B/|c2)c cBA|E3-E2 (A/B/|c2)c dcB|F3-F2 (B/c/|!
d2)d dcB|ug2ug g2f|fee e^de|(~f2e) c2(A/B/|!
c2)c cBA|E3-E2 (A/B/|c2)c dcB|F3-F2 (B/c/|!
d2)d dcB|ug2ug g2f|efe dcB|A3 uA2||!
uE|CA,A, A,CE|D=G,G, uG,2uB,|A,CE AGA|BEE (~E2D)|!
CA,A, A,CE|D=G,G, uG,2uE|AGA BAB|(~B2A) uA2:|!
